X:81
T:Se\'an Bu\'i
T:Over the Water to Charlie
R:slide
H:See also #31, #61
Z:id:hn-slide-81
M:6/8
K:D
DFA AFA | BGB AFA | DFA AFA | B2c dAF |
D2A AFA | DBB AFA | dfd ecA | B2c d3 :| 
|: dfd ece | dcB AFA | dfd ecA | B2c d2A |
[1 d3 ece | dcB AFA | ~D3 AFA | B2c d3 :| 
[2 afd ecA | dcB AFA | DFA AFA | B2c d3 ||
<end>
<start>
